X: 76
T:Sean McGovern's Polka
R:Polka
S:Matt Cranitch Book
Z:Added by alf.warnock@rogers.com
M:2/4
L:1/8
K:D
B|AD FA|GF EF/G/|AD FA|d2 c/d/c/B/|
AD FA|GF E>d|ce Ac|d2 d3/2:|
e/|fd gf|e/f/e/c/ Ae|fd gf|e2 a/b/a/g/|
fd gf|ec A>B|ce ce|d2 d3/2:|

